X: 55
T: 42 Beech Avenue
R: reel
M: 4/4
K: Gmajor
|:Gzdz dBd2|ezde egg/g/g|Gzd2 cBG2|EAAA FDB,A,|
G,Gdz dBd2|ezde egab|d2cB cBG2|EAAA GFGA:|
|:ezdB deG2-|GDEG AGAB|ezdB deG2-|Ggge edd/d/B|
ezdB deG2-|GDEG AGAB|zDEG AGAB|1 Gggd egab:|2 Ggge edBA||

